X: 147
T: Simian jing
L: 1/8
M: 4/4
K: G
d e d BA4 [I:setbarnb 1]| 
d e d BA2B A | 
G2A2d2B d | 
A B A EG4 | 
G2A2d2B A | 
G A B dA2B A | 
D2E2A2G2 | 
FE2B,D4 | 
d> e d BA2B A | 
D2E2A2G2 | 
FE2B,D4 |]

@@@ Tune index: 9021
